SVG_Azure_Grouped/Management/Automation Connection.svg

<?xml version="1.0" encoding="UTF-8" standalone="no"?>
<!-- Generated by Microsoft Visio, SVG Export Automation Connection.svg Page-1 -->

<svg
   xmlns:dc="http://purl.org/dc/elements/1.1/"
   xmlns:cc="http://creativecommons.org/ns#"
   xmlns:rdf="http://www.w3.org/1999/02/22-rdf-syntax-ns#"
   xmlns:svg="http://www.w3.org/2000/svg"
   xmlns="http://www.w3.org/2000/svg"
   xmlns:sodipodi="http://sodipodi.sourceforge.net/DTD/sodipodi-0.dtd"
   xmlns:inkscape="http://www.inkscape.org/namespaces/inkscape"
   width="0.78736067in"
   height="0.78736067in"
   viewBox="0 0 56.689999 56.689999"
   xml:space="preserve"
   class="st2"
   version="1.1"
   id="svg19"
   sodipodi:docname="Automation Connection.svg"
   style="font-size:12px;overflow:visible;color-interpolation-filters:sRGB;fill:none;fill-rule:evenodd;stroke-linecap:square;stroke-miterlimit:3"
   inkscape:version="0.92.5 (2060ec1f9f, 2020-04-08)"><metadata
   id="metadata25"><rdf:RDF><cc:Work
       rdf:about=""><dc:format>image/svg+xml</dc:format><dc:type
         rdf:resource="http://purl.org/dc/dcmitype/StillImage" /></cc:Work></rdf:RDF></metadata><defs
   id="defs23" /><sodipodi:namedview
   pagecolor="#ffffff"
   bordercolor="#666666"
   borderopacity="1"
   objecttolerance="10"
   gridtolerance="10"
   guidetolerance="10"
   inkscape:pageopacity="0"
   inkscape:pageshadow="2"
   inkscape:window-width="640"
   inkscape:window-height="480"
   id="namedview21"
   showgrid="false"
   inkscape:zoom="1.2646658"
   inkscape:cx="37.795046"
   inkscape:cy="37.797713"
   inkscape:window-x="0"
   inkscape:window-y="0"
   inkscape:window-maximized="0"
   inkscape:current-layer="svg19" />
	<style
   type="text/css"
   id="style2">
	<![CDATA[
		.st1 {fill:#000000;stroke:none;stroke-linecap:butt;stroke-width:41.6327}
		.st2 {fill:none;fill-rule:evenodd;font-size:12px;overflow:visible;stroke-linecap:square;stroke-miterlimit:3}
	]]>
	</style>

	<g
   id="g17"
   transform="translate(-41.6327,-41.6373)">
		<title
   id="title4">Page-1</title>
		<g
   id="group13153-1"
   transform="translate(41.6327,-41.6327)">
			<title
   id="title6">Automation Connection.13153</title>
			<g
   id="group13154-2">
				<title
   id="title8">Sheet.13154</title>
				<g
   id="shape13155-3">
					<title
   id="title10">Sheet.13155</title>
					<path
   d="m 7.33,119.52 a 12.3413,12.3413 0 0 1 0.77,-5.4 10.7987,10.7987 0 0 1 3.08,-4.24 l 6.56,-6.95 19.28,19.29 -6.94,6.55 a 10.7987,10.7987 0 0 1 -4.24,3.09 11.9556,11.9556 0 0 1 -5.01,1.16 L 16.2,132.24 12.73,130.32 2.7,139.96 0,137.26 9.64,127.23 a 15.8123,15.8123 0 0 1 -1.93,-3.47 17.355,17.355 0 0 1 -0.38,-4.24 z m 13.5,9.64 3.47,-0.77 a 9.25599,9.25599 -180 0 0 3.08,-2.32 l 4.24,-3.85 -13.88,-13.89 -3.86,4.25 -2.31,3.08 a 11.9556,11.9556 -180 0 0 -0.39,3.86 10.7987,10.7987 -180 0 0 0.39,3.47 l 2.31,3.08 3.09,2.32 z M 47.05,95.99 a 15.8123,15.8123 0 0 1 1.93,3.47 19.2833,19.2833 0 0 1 0.77,4.63 11.9556,11.9556 0 0 1 -1.16,5.01 10.7987,10.7987 0 0 1 -3.08,4.25 l -6.56,6.94 -19.28,-19.28 6.94,-6.56 a 10.7987,10.7987 0 0 1 4.24,-3.09 12.3413,12.3413 0 0 1 5.4,-0.77 h 4.24 l 3.48,1.93 10.02,-9.25 2.7,2.69 z m -4.24,14.66 a 9.25599,9.25599 -180 0 0 2.31,-3.09 11.1843,11.1843 -180 0 0 0.77,-3.47 11.57,11.57 -180 0 0 -0.77,-3.86 L 42.81,97.15 39.72,95.22 A 5.78499,5.78499 -180 0 0 36.25,94.45 H 32.4 l -3.09,2.31 -4.24,3.86 13.88,13.88 z"
   class="st1"
   id="path12"
   inkscape:connector-curvature="0"
   style="fill:#000000;stroke:none;stroke-width:41.63270187;stroke-linecap:butt" />
				</g>
			</g>
		</g>
	</g>
</svg>

<?xml version="1.0" encoding="UTF-8" standalone="no"?>
<!DOCTYPE svg PUBLIC "-//W3C//DTD SVG 1.1//EN" "http://www.w3.org/Graphics/SVG/1.1/DTD/svg11.dtd">
<!-- Generated by Microsoft Visio, SVG Export Automation Connection.svg Page-1 -->
<svg xmlns="http://www.w3.org/2000/svg" xmlns:xlink="http://www.w3.org/1999/xlink" xmlns:ev="http://www.w3.org/2001/xml-events"
		width="1.94386in" height="1.94386in" viewBox="0 0 139.958 139.958" xml:space="preserve" color-interpolation-filters="sRGB"
		class="st2">
	<style type="text/css">
	<![CDATA[
		.st1 {fill:#000000;stroke:none;stroke-linecap:butt;stroke-width:41.6327}
		.st2 {fill:none;fill-rule:evenodd;font-size:12px;overflow:visible;stroke-linecap:square;stroke-miterlimit:3}
	]]>
	</style>

	<g>
		<title>Page-1</title>
		<g id="group12860-1" transform="translate(41.6327,-41.6327)">
			<title>Automation Connection.12860</title>
			<g id="group12861-2">
				<title>Sheet.12861</title>
				<g id="shape12862-3">
					<title>Sheet.12862</title>
					<path d="M7.33 119.52 A12.3413 12.3413 0 0 1 8.1 114.12 A10.7987 10.7987 0 0 1 11.18 109.88 L17.74 102.93 L37.02
								 122.22 L30.08 128.77 A10.7987 10.7987 0 0 1 25.84 131.86 A11.9556 11.9556 0 0 1 20.83 133.02 L16.2
								 132.24 L12.73 130.32 L2.7 139.96 L0 137.26 L9.64 127.23 A15.8123 15.8123 0 0 1 7.71 123.76 A17.355
								 17.355 0 0 1 7.33 119.52 ZM20.83 129.16 L24.3 128.39 A9.25599 9.25599 -180 0 0 27.38 126.07 L31.62
								 122.22 L17.74 108.33 L13.88 112.58 L11.57 115.66 A11.9556 11.9556 -180 0 0 11.18 119.52 A10.7987
								 10.7987 -180 0 0 11.57 122.99 L13.88 126.07 L16.97 128.39 L20.83 129.16 ZM47.05 95.99 A15.8123 15.8123
								 0 0 1 48.98 99.46 A19.2833 19.2833 0 0 1 49.75 104.09 A11.9556 11.9556 0 0 1 48.59 109.1 A10.7987
								 10.7987 0 0 1 45.51 113.35 L38.95 120.29 L19.67 101.01 L26.61 94.45 A10.7987 10.7987 0 0 1 30.85
								 91.36 A12.3413 12.3413 0 0 1 36.25 90.59 L40.49 90.59 L43.97 92.52 L53.99 83.27 L56.69 85.96 L47.05
								 95.99 ZM42.81 110.65 A9.25599 9.25599 -180 0 0 45.12 107.56 A11.1843 11.1843 -180 0 0 45.89 104.09
								 A11.57 11.57 -180 0 0 45.12 100.23 L42.81 97.15 L39.72 95.22 A5.78499 5.78499 -180 0 0 36.25 94.45
								 L32.4 94.45 L29.31 96.76 L25.07 100.62 L38.95 114.5 L42.81 110.65 Z" class="st1"/>
				</g>
			</g>
		</g>
	</g>
</svg>
